X: 41935
T: Walk Don't Run
R: barndance
M: 4/4
K: Fmajor
|:A2 DE FG ^GA|Bc de f2 e2|d2 DE FG ^GA|Bc d2 c2 B2|
AB A^G A2 F2|G2 AB AG FE|F2 G2 F2 E2|1 FA cd cB AG:|2 FC DE FG AB||
c2 =Bc A2 _B2|c2 =Bc dc Bc|d2 ^cd A2 =c2|d2 ^cd ed =c^c|
d2 ^cd B=c ^cd|ef ed cd e2|fg ef de cd|Bc AB G2 FG|
A2 DE FG ^GA|Bc de f2 e2|d2 DE FG ^GA|Bc d2 c2 B2|
AB A^G A2 F2|G2 AB AG FE|F2 G2 F2 E2|F4 F2 z2||

